!!!COM:	de Orto, Marbrianus
!!!CDT:	~1460///-1529//
!!!OTL:	Ut queant laxis
!!!AGN:	Motet
!!!SCT:	Ort2007
!!!SCA:	Ort2007
!!!voices:	4
**kern	**kern	**kern	**kern
*staff4	*staff3	*staff2	*staff1
*Ivox	*Ivox	*Ivox	*Ivox
*I"Bassus	*I"Tenor	*I"Altus	*I"Superius
*I'B	*I'T	*I'A	*I'S
*clefF4	*clefGv2	*clefGv2	*clefG2
*k[]	*k[]	*k[]	*k[]
*M2/1	*M2/1	*M2/1	*M2/1
*met(C|)	*met(C|)	*met(C|)	*met(C|)
!!section: Ventris obstruso
!!!OMD: Ventris obstruso
=1-	=1-	=1-	=1-
0r	0D	2.D/	0r
.	.	4E/	.
.	.	4F/	.
.	.	4G/	.
.	.	[2A/	.
=2	=2	=2	=2
1AA	1C	4A/]	0r
.	.	4B\	.
.	.	2c\	.
1GG	2.D/	2B\	.
.	.	[2d\	.
.	4E/	.	.
=3	=3	=3	=3
1AA	2F/	2d\]	0r
.	2.E/	2.c\	.
1C	.	.	.
.	4F/	4d\	.
.	2G/	[2e\	.
=4	=4	=4	=4
1C	2A/	2e\]	1r
.	2.G/	2E/	.
1BB	.	1G	[1d
.	4F/	.	.
.	2D/	.	.
=5	=5	=5	=5
0AA	1E	0A	1d]
.	1E	.	1c
=6	=6	=6	=6
0BB	1D	1r	0d
.	[1d	1D	.
=7	=7	=7	=7
0r	2d\]	2r	0f
.	4c\	2d\	.
.	4B\	.	.
.	2A/	2c\	.
.	[2B-\	[2d\	.
=8	=8	=8	=8
0r	2B-\]	2d\]	1f
.	1A	1c	.
.	.	.	1e
.	2G/	2B\	.
=9	=9	=9	=9
0r	2F/	2A/	0d
.	2E/	2G/	.
.	1F	1A	.
=10	=10	=10	=10
0AA	1.E	1A	0e
.	.	1c	.
.	4D/	.	.
.	4C/	.	.
=11	=11	=11	=11
[0GG	1.G	0B	0r
.	2A/	.	.
=12	=12	=12	=12
0GG]	0B	1.G	0d
.	.	2F/	.
=13	=13	=13	=13
0AA	1.A	1E	[0c
.	.	2r	.
.	4G/	2A/	.
.	4F/	.	.
=14	=14	=14	=14
1C	2E/	2G/	0c_
.	2.G/	2.E/	.
1C	.	.	.
.	4F/	4F/	.
.	2E/	2G/	.
=15	=15	=15	=15
0C	2A/	2E/	0c_
.	2G/	2G/	.
.	1E	2A/	.
.	.	2G/	.
=16	=16	=16	=16
0r	2A/	2F/	0c]
.	4G/	1A	.
.	4F/	.	.
.	1E	.	.
.	.	2G/	.
=17	=17	=17	=17
0r	1D	2B-\	0d
.	.	2A/	.
.	1G	2B-i\	.
.	.	4A/	.
.	.	4G/	.
=18	=18	=18	=18
0r	2r	2F/	1f
.	2.d\	2D/	.
.	.	2r	1f
.	4c\	.	.
.	4B-\	2d\	.
.	4A/	.	.
=19	=19	=19	=19
0D	2B-i\	0d	0f
.	1A	.	.
.	2B-i\	.	.
=20	=20	=20	=20
1C	1c	1e	1g
1D	1A	1f	1f
=21	=21	=21	=21
1.E	2r	[0e	0g
.	1c	.	.
2D\	2B\	.	.
=22	=22	=22	=22
0C	2c\	0e]	0r
.	4B\	.	.
.	4A/	.	.
.	2G/	.	.
.	2c\	.	.
=23	=23	=23	=23
[0D	2A/	1.f	1.a
.	1d	.	.
.	4c\	2e\	2g/
.	4B\	.	.
=24	=24	=24	=24
0D]	2A/	1d	0f
.	2G/	.	.
.	1A	2r	.
.	.	[2d\	.
=25	=25	=25	=25
0r	2G/	2d\]	1g
.	4F/	1c	.
.	4E/	.	.
.	1D	.	1f
.	.	2B\	.
=26	=26	=26	=26
1C	0G	1c	1e
1BB	.	2r	1d
.	.	[2G/	.
=27	=27	=27	=27
1AA	1C	2G/]	1e
.	.	1A	.
1BB	1D	.	[1d
.	.	2G/	.
=28	=28	=28	=28
0AA	2E/	2.A/	2d/]
.	2F/	.	2c/
.	.	4G/	.
.	1C	2.E/	[1c
.	.	4F/	.
=29	=29	=29	=29
0GG	0D	1G	1c]
.	.	2r	1B
.	.	[2G/	.
=30	=30	=30	=30
0C	2.C/	2G/]	0c
.	.	2c\	.
.	4D/	.	.
.	4E/	2A/	.
.	4F/	.	.
.	2G/	2G/	.
=31	=31	=31	=31
1AA	2C/	1c	0r
.	2.E/	.	.
1GG	.	1B	.
.	4F/	.	.
.	[2G/	.	.
=32	=32	=32	=32
0C	2G/]	1E	0r
.	2c\	.	.
.	2A/	2r	.
.	2G/	2c\	.
=33	=33	=33	=33
0C	2.c\	2A/	0r
.	.	2G/	.
.	4d\	.	.
.	1e	1c	.
=34	=34	=34	=34
0r	1A	2F/	0f
.	.	2D/	.
.	[1B-	[1d	.
=35	=35	=35	=35
0r	1B-]	1d]	1d
.	1A	1e	1c
=36	=36	=36	=36
0r	0B-i	[0d	0f
=37	=37	=37	=37
0D	1A	0d]	0f
.	2B\	.	.
.	[2d\	.	.
=38	=38	=38	=38
1E	2d\]	1r	0r
.	1c	.	.
1D	.	1f	.
.	[2B\	.	.
=39	=39	=39	=39
1C	2B\]	1e	0r
.	1A	.	.
[1BB	.	[1d	.
.	2G/	.	.
=40	=40	=40	=40
1BB]	1D	1d]	1g
1AA	1E	1c	1a
=41	=41	=41	=41
0r	1C	1e	1g
.	1D	[1d	1f
=42	=42	=42	=42
0r	0A	2d\]	0e
.	.	4c#i\	.
.	.	4B\	.
.	.	1c#i	.
=43	=43	=43	=43
0r	2D/	2d\	1d
.	2.F/	1A	.
.	.	.	1r
.	4E/	.	.
.	2D/	4G/	.
.	.	4F/	.
=44	=44	=44	=44
0r	1C	1E	1r
.	1D	[1D	[1f
=45	=45	=45	=45
1r	1F	1D]	1f]
1C	[1G	1r	1e
=46	=46	=46	=46
1BB	1G]	1D	1d
1AA	1A	2.E/	1c
.	.	4F/	.
=47	=47	=47	=47
0GG	1D	2G/	2d/
.	.	4F/	2.g/
.	.	4E/	.
.	1d	2D/	.
.	.	.	4a/
.	.	2G/	2b\
=48	=48	=48	=48
[0AA	1c	2E/	2cc\
.	.	2c\	1a
.	2r	2A/	.
.	2A/	[2c\	4g/
.	.	.	4f/
=49	=49	=49	=49
0AA_	2.c\	4c\]	2e/
.	.	4B\	.
.	.	4A/	2.cc\
.	4B\	4G/	.
.	4A/	1F	.
.	4G/	.	4b\
.	2F/	.	[2a/
=50	=50	=50	=50
0AA_	2E/	0c	4a/]
.	.	.	4g/
.	1A	.	4f/
.	.	.	4e/
.	.	.	2f/
.	4G/	.	4e/
.	4F/	.	4d/
=51	=51	=51	=51
0AA]	2E/	[0Al	2c/
.	2D/	.	1d
.	1E	.	.
.	.	.	2c#i/
=52	=52	=52	=52
0Dl	0Dl	0A]	0dl
==	==	==	==
*-	*-	*-	*-
!!!RDF**kern: l=long note in original notation
!!!RDF**kern: i=editorial accidental
!!!ENC:	Jesse Rodin 8/7/2013
!!!END:	2013/08/07/
!!!EED:	Jesse Rodin
!!!EEV:	2013/08/07/
!!!ONB:	Translated from MusicXML and edited on 2013/08/07/ by Craig Sapp
!!muse2ps: C^@{COM}^i2I150v85,85,85,150Q16
